X: 05042
T: JOHN CAMPBELL'S REEL
C: Bob McQuillen 28 Sept'80
B: Bob's Note Book 5 #42
%R: reel
Z: 2021 John Chambers <jc:trillian.mit.edu>
M: C
L: 1/8
K: A
|: A,CEF ABce | cBcA BAFA | A,CEF ABce | faec BAFA  |
|  A,CEF ABce | dcdA BAFA | EFAB  cBAc | BABc A2A2 :|
|: ecAc  BAFA | ecfc ecBc | ecAc  BAFA | EFAB cAFA  |
|  ecAc  BAFA | ecfc ecBc | ecfc  efaf | ecBc A2A2 :|
%%begintext align
%% When John
%% Campbell raises his fiddle and plays
%% his wonderful "Sandy McIntire's Trip
%% to Boston", then I _know_ I'm in Heaven!
%%endtext

%%sep 1 1 500

%%sep 1 1 500

